!!!COM: Bach, Johann Sebastian
!!!OPR: Joh. Seb. Bachs vierstimmige Choralgesänge
!!!XEN: Four-part Chorales
!!!OTL: 84. Herr, nun lass in Friede
!!!SCT: BWV 337
!!!SCA: Thematisch-systematisches Verzeichnis der musikalischen Werke Johann Sebastian Bach: Bach-Werke-Verzeichnis (Schmieder)
!!!YOR: Bach Gesellschaft Edition xxxix
!!!ENC: Steven Rasmussen
!!!CDT: 1685/3//-1750/7/28/
!!!OCY: Deutschland
!!!YEC: Copyright (c) 1994, 2000 Center for Computer Assisted Research in the Humanities
!!!YEM: Rights to all derivative editions reserved
!!!YEN: United States of America
**kern	**kern	**kern	**kern	**silbe
*I:[BASSO]	*I:[TENORE]	*I:[ALTO]	*I:[SOPRANO]	*I:[SOPRANO]
*clefF4	*clefGv2	*clefG2	*clefG2	*
*k[]	*k[]	*k[]	*k[]	*
*a:	*a:	*a:	*a:	*
*M4/4	*M4/4	*M4/4	*M4/4	*
=1-	=1-	=1-	=1-	=1-
8EL	4G	4B	4e	Herr,
8DJ	.	.	.	.
4C	8AL	4c	4e	nun
.	8G#J	.	.	.
8CL	4A	4d	4f#	lass
8DJ	.	.	.	.
8CL	4B	4d	4g#	in
8BBJ	.	.	.	.
=2	=2	=2	=2	=2
8AAL	4c	4e	2a	Frie-
8GGJ	.	.	.	.
4FF	8BL	4d	.	.
.	8AJ	.	.	.
2EE;	2B;	2e;	2g#;	-de,
=3	=3	=3	=3	=3
8DL	4B	4e	4g#	le-
8FJ	.	.	.	.
8EL	4B	4e	4g#	-bens-
8DJ	.	.	.	.
8CL	4c	8eL	4a	-satt
8DJ	.	8f#J	.	.
8CL	4d	4g#	4b	und
8BBJ	.	.	.	.
=4	=4	=4	=4	=4
8AAL	2e	2a	2cc	mÃ¼-
8BB	.	.	.	.
8C	.	.	.	.
8DJ	.	.	.	.
2E;	2e;	(4a	2b;	-de,
.	.	4g#;)	.	.
=5	=5	=5	=5	=5
8EL	4e	8gL	4cc	dei-
8DJ	.	8f#J	.	.
8EL	8eL	8gL	4cc	-nen
8F#J	8dJ	8aJ	.	.
8GL	4d	4g	4b	Die-
8F#J	.	.	.	.
8GL	4d	4fn	4b	-ner
8G#J	.	.	.	.
=6	=6	=6	=6	=6
4A	8d	4e	2a	fah-
.	4c	.	.	.
4D#	.	4f#	.	.
.	8B	.	.	.
2E;	2B;	2e;	2g#;	-ren
=7	=7	=7	=7	=7
8FL	8AL	4c	4a	zu
8EJ	8GJ	.	.	.
8DL	4F	8fL	4a	den
8CJ	.	8eJ	.	.
8BBL	4G	8dL	4g	Him-
8AAJ	.	8cJ	.	.
8BBL	8DL	8dL	4g	-mels-
8C#J	8AJ	8eJ	.	.
=8	=8	=8	=8	=8
8DL	4A	2d	2f	-scha-
8C	.	.	.	.
8BB	4G	.	.	.
8GGJ	.	.	.	.
2C;	2G;	2c;	2e;	-ren,
=9	=9	=9	=9	=9
8CL	4c	4g	4ee	se-
8DJ	.	.	.	.
8EL	4c	4g	4ee	-lig
8FJ	.	.	.	.
8GL	4c	4g	4dd	und
8AJ	.	.	.	.
8BL	4B	8gL	4dd	im
8GJ	.	8fJ	.	.
=10	=10	=10	=10	=10
8AAL	4B	2e	2cc	Stil-
8BB	.	.	.	.
8C	4A	.	.	.
8DJ	.	.	.	.
2E;	(4A	2e;	2b;	-len,
.	4G#;)	.	.	.
=11	=11	=11	=11	=11
8FFL	8AL	4c	4a	doch
8GGJ	8BJ	.	.	.
8AAL	4c	4f	4a	nach
8BBJ	.	.	.	.
8CL	4c	4f	4g	dei-
8DJ	.	.	.	.
8EL	8cL	4e	4g	-nem
8CJ	8B-J	.	.	.
=12	=12	=12	=12	=12
2D	8AL	4e	2f	Wil-
.	8c	.	.	.
.	8B	8dL	.	.
.	8AJ	8cJ	.	.
2E;	2G#;	2B;	2e;	-len.
==|!	==|!	==|!	==|!	==|!
*-	*-	*-	*-	*-
!!!RWG: Key is interpreted using the Humdrum key tool.
!!!URL-pdf: https://s9.imslp.org/files/imglnks/usimg/6/6b/IMSLP24489-PMLP09471-CCARH_Bach_Chorales.pdf#page=59 Musedata edition
!!!URL-pdf: https://s9.imslp.org/files/imglnks/usimg/7/7a/IMSLP04155-Bach_-_BGA_253-438.pdf#page=45 	Bach-Gesellschaft Ausgabe, Band 39 (pp.175-276) Leipzig: Breitkopf und Härtel, 1892. Plate B.W. XXXIX.
!!!END: 1994/06/10
!!!EMD: Converted from MuseData to Humdrum Dec 19, 2000, by Andreas Kornstaedt using muse2kern.
!!!EED: Craig Stuart Sapp
!!!EEV: 2024/03/31
!!!filter-keyboard: satb2gs
